src/images/svg/be-square/product-design.svg

<svg width="48" height="48" viewBox="0 0 48 48" fill="none" xmlns="http://www.w3.org/2000/svg">
<path d="M10.3741 17.4375H9.24905C9.24905 17.838 9.27774 18.2436 9.33399 18.6418L10.4477 18.4838C10.3988 18.1373 10.3741 17.7857 10.3741 17.4375Z" fill="#FF444F"/>
<path d="M9.59909 19.8484L10.678 19.5278C11.2112 21.3227 12.4026 22.8302 14.0316 23.773L13.4679 24.7467C11.5892 23.6594 10.2156 21.9201 9.59909 19.8484Z" fill="#FF444F"/>
<path d="M15.9991 10.125H17.1241V11.25H15.9991V10.125Z" fill="#FF444F"/>
<path d="M14.8741 10.125H13.7491V11.25H14.8741V10.125Z" fill="#FF444F"/>
<path d="M20.4991 10.125H21.6241V11.25H20.4991V10.125Z" fill="#FF444F"/>
<path d="M19.3741 10.125H18.2491V11.25H19.3741V10.125Z" fill="#FF444F"/>
<path d="M21.0616 38.25H24.4366V39.375H21.0616V38.25Z" fill="#FF444F"/>
<path fill-rule="evenodd" clip-rule="evenodd" d="M32.8741 17.4375C32.8741 15.8867 34.1357 14.625 35.6866 14.625C37.2374 14.625 38.4991 15.8867 38.4991 17.4375C38.4991 18.9883 37.2374 20.25 35.6866 20.25C34.1357 20.25 32.8741 18.9883 32.8741 17.4375ZM33.9991 17.4375C33.9991 18.3679 34.7562 19.125 35.6866 19.125C36.6169 19.125 37.3741 18.3679 37.3741 17.4375C37.3741 16.5071 36.6169 15.75 35.6866 15.75C34.7562 15.75 33.9991 16.5071 33.9991 17.4375Z" fill="#FF444F"/>
<path fill-rule="evenodd" clip-rule="evenodd" d="M41.8742 15.9069L40.4933 15.4462L41.1441 14.1446L38.9796 11.9801L37.6774 12.6315L37.2173 11.25H34.1567L33.6966 12.6315L32.3944 11.9801L30.2299 14.1446L30.4695 14.625H28.0215C26.8189 10.0373 22.608 6.75 17.8239 6.75H17.5494C11.7321 6.75 6.99919 11.4829 6.99919 17.2997C6.99919 20.7394 8.68106 23.9704 11.4992 25.9425C12.2034 26.4352 12.6242 27.2436 12.6242 28.1031V28.125H8.85938L6.75 33.75H8.68669V38.8125C8.68669 40.3633 9.94838 41.625 11.4992 41.625H23.8742C25.425 41.625 26.6867 40.3633 26.6867 38.8125V33.75H28.6234L26.514 28.125H22.7492V28.1036C22.7492 27.2441 23.1699 26.4358 23.8742 25.9431C25.8458 24.5632 27.2711 22.5518 27.9422 20.25H30.4695L30.2293 20.7304L32.3938 22.8949L33.696 22.2435L34.1561 23.625H37.2167L37.6768 22.2435L38.979 22.8949L41.1435 20.7304L40.4927 19.4288L41.8742 18.9681V15.9069ZM17.0809 28.125L16.3159 18.5625H17.7159C17.8082 18.6272 17.9072 18.6834 18.0152 18.7245L19.0136 19.0991L18.2925 28.125H17.0809ZM18.4106 17.6709C18.3139 17.6344 18.2492 17.541 18.2492 17.4375C18.2492 17.334 18.3139 17.2406 18.4112 17.2041L21.6242 15.9992V18.8758L18.4106 17.6709ZM22.7492 18H29.4992V18.9681L29.97 19.125H22.7492V18ZM29.4992 15.9069V16.875H22.7492V15.75H29.97L29.4992 15.9069ZM12.1438 25.0211C9.62719 23.2594 8.12419 20.3726 8.12419 17.2997C8.12419 12.1033 12.3525 7.875 17.5494 7.875H17.8239C21.9994 7.875 25.6894 10.6757 26.8594 14.625H22.0843L18.0163 16.1505C17.4831 16.3502 17.1242 16.8677 17.1242 17.4375H16.2259L16.1213 16.1331C16.0284 14.9721 15.0435 14.0625 13.8786 14.0625H13.7492C12.5083 14.0625 11.4992 15.0716 11.4992 16.3125C11.4992 17.5534 12.5083 18.5625 13.7492 18.5625H15.1875L15.9525 28.125H13.7492V28.1036C13.7492 26.8768 13.1496 25.7248 12.1438 25.0211ZM15.0969 17.4375H13.7492C13.1288 17.4375 12.6242 16.9329 12.6242 16.3125C12.6242 15.6921 13.1288 15.1875 13.7492 15.1875H13.8786C14.4608 15.1875 14.9535 15.6426 14.9996 16.2225L15.0969 17.4375ZM9.639 29.25H15.7494L14.4838 32.625H8.37338L9.639 29.25ZM9.81169 38.8125V33.75H15.264L16.5617 30.2901V40.5H11.4992C10.5688 40.5 9.81169 39.7429 9.81169 38.8125ZM25.5617 38.8125C25.5617 39.7429 24.8046 40.5 23.8742 40.5H17.6867V30.2901L18.9844 33.75H25.5617V38.8125ZM27 32.625H19.764L18.4984 29.25H25.7338L27 32.625ZM23.2296 25.0211C22.2238 25.7248 21.6242 26.8768 21.6242 28.1036V28.125H19.4209L20.1099 19.5098L22.0843 20.25H26.7705C26.136 22.1749 24.9002 23.8517 23.2296 25.0211ZM40.7492 18.1569L39.4588 18.5873L39.3638 18.8353C39.3356 18.9073 39.3075 18.9788 39.2766 19.0485L39.1674 19.2921L39.7755 20.5082L38.7579 21.5258L37.5418 20.9177L37.2983 21.0268C37.2291 21.0578 37.1588 21.0859 37.0873 21.1129L36.837 21.2074L36.4061 22.5H34.9667L34.5358 21.2074L34.2855 21.1129C34.2141 21.0859 34.1438 21.0578 34.0746 21.0268L33.831 20.9177L32.6149 21.5258L31.5973 20.5082L32.2054 19.2921L32.0963 19.0485C32.0657 18.9802 32.0388 18.9115 32.0115 18.8416L32.0091 18.8353L31.914 18.5873L30.6242 18.1569V16.7175L31.9146 16.2872L32.0096 16.0391C32.0378 15.9671 32.0659 15.8957 32.0968 15.8259L32.2059 15.5824L31.5979 14.3663L32.6154 13.3487L33.8316 13.9567L34.0751 13.8476C34.1443 13.8167 34.2146 13.7886 34.2861 13.7616L34.5364 13.6671L34.9673 12.375H36.4067L36.8376 13.6676L37.0879 13.7621C37.1593 13.7891 37.2296 13.8173 37.2988 13.8482L37.5424 13.9573L38.7585 13.3493L39.7761 14.3668L39.168 15.5829L39.2771 15.8265C39.3077 15.8948 39.3346 15.9635 39.3618 16.0334L39.3643 16.0397L39.4594 16.2877L40.7492 16.7181V18.1569Z" fill="#FF444F"/>
</svg>

<svg xmlns="http://www.w3.org/2000/svg" width="48" height="48" fill="#ff444f"  xmlns:v="https://vecta.io/nano"><path d="M10.374 17.438H9.249a8.67 8.67 0 0 0 .085 1.204l1.114-.158a7.51 7.51 0 0 1-.074-1.046zm-.775 2.41l1.079-.321a7.29 7.29 0 0 0 3.354 4.245l-.564.974c-1.879-1.087-3.252-2.827-3.869-4.898zm6.4-9.723h1.125v1.125h-1.125v-1.125zm-1.125 0h-1.125v1.125h1.125v-1.125zm5.625 0h1.125v1.125h-1.125v-1.125zm-1.125 0h-1.125v1.125h1.125v-1.125zm1.688 28.125h3.375v1.125h-3.375V38.25z"/><path d="M32.874 17.438c0-1.551 1.262-2.812 2.813-2.812s2.813 1.262 2.813 2.813-1.262 2.813-2.812 2.813-2.812-1.262-2.812-2.812zm1.125 0a1.69 1.69 0 0 0 1.688 1.688 1.69 1.69 0 0 0 1.688-1.687 1.69 1.69 0 0 0-1.687-1.687 1.69 1.69 0 0 0-1.687 1.688zm7.875-1.531l-1.381-.461.651-1.302-2.165-2.165-1.302.651-.46-1.382h-3.061l-.46 1.382-1.302-.651-2.164 2.165.24.48h-2.448c-1.203-4.588-5.413-7.875-10.198-7.875h-.274C11.733 6.749 7 11.482 7 17.299c0 3.44 1.682 6.671 4.5 8.643a2.64 2.64 0 0 1 1.125 2.161v.022H8.859L6.75 33.75h1.937v5.063c0 1.551 1.262 2.813 2.813 2.813h12.375c1.551 0 2.813-1.262 2.813-2.812V33.75h1.937l-2.109-5.625h-3.765v-.021a2.64 2.64 0 0 1 1.125-2.16c1.972-1.38 3.397-3.391 4.068-5.693h2.527l-.24.48 2.165 2.165 1.302-.651.46 1.381h3.061l.46-1.381 1.302.651 2.165-2.165-.651-1.302 1.382-.461v-3.061zM17.081 28.125l-.765-9.562h1.4c.092.065.191.121.299.162l.998.375-.721 9.026H17.08zm1.33-10.454a.25.25 0 0 1 .001-.467l3.213-1.205v2.877l-3.214-1.205zM22.75 18h6.75v.968l.471.157H22.75V18zm6.75-2.093v.968h-6.75V15.75h7.221l-.471.157zm-17.355 9.114c-2.517-1.762-4.02-4.649-4.02-7.721a9.44 9.44 0 0 1 9.425-9.425h.274c4.176 0 7.866 2.801 9.036 6.75h-4.775l-4.068 1.526a1.38 1.38 0 0 0-.892 1.287h-.898l-.105-1.304c-.093-1.161-1.078-2.071-2.243-2.071h-.129c-1.241 0-2.25 1.009-2.25 2.25s1.009 2.25 2.25 2.25h1.438l.765 9.563H13.75v-.021c0-1.227-.6-2.379-1.605-3.082zm2.953-7.584H13.75c-.62 0-1.125-.505-1.125-1.125s.505-1.125 1.125-1.125h.129A1.13 1.13 0 0 1 15 16.223l.097 1.215zM9.639 29.25h6.11l-1.266 3.375h-6.11l1.266-3.375zm.173 9.563V33.75h5.452l1.298-3.46V40.5H11.5a1.69 1.69 0 0 1-1.688-1.687zm15.75 0a1.69 1.69 0 0 1-1.687 1.688h-6.187V30.29l1.298 3.46h6.577v5.063zM27 32.625h-7.236l-1.266-3.375h7.235L27 32.625zm-3.77-7.604c-1.006.704-1.605 1.856-1.605 3.082v.021h-2.203l.689-8.615 1.974.74h4.686a9.41 9.41 0 0 1-3.541 4.771zm17.52-6.864l-1.29.43-.095.248a5.25 5.25 0 0 1-.087.213l-.109.244.608 1.216-1.018 1.018-1.216-.608-.244.109a3.58 3.58 0 0 1-.211.086l-.25.095-.431 1.293h-1.439l-.431-1.293-.25-.095a3.88 3.88 0 0 1-.211-.086l-.244-.109-1.216.608-1.018-1.018.608-1.216-.109-.244c-.031-.068-.057-.137-.085-.207l-.002-.006-.095-.248-1.29-.43v-1.439l1.29-.43.095-.248.087-.213.109-.244-.608-1.216 1.018-1.018 1.216.608.243-.109a3.58 3.58 0 0 1 .211-.086l.25-.095.431-1.292h1.439l.431 1.293.25.095a3.88 3.88 0 0 1 .211.086l.244.109 1.216-.608 1.018 1.018-.608 1.216.109.244a4.44 4.44 0 0 1 .085.207l.002.006.095.248 1.29.43v1.439z" fill-rule="evenodd"/></svg>
